X:1
T:Title
%%score ( 1 2 3 ) { ( 4 7 ) | ( 5 6 ) }
L:1/8
M:4/4
K:F
V:1 treble nm="Grand Piano, Treble"
V:2 treble 
V:3 treble 
V:4 treble nm="Choir Pad, Old 124th"
V:7 treble 
V:5 bass 
V:6 bass 
V:1
 [CF]4 [CG]2 [FA]2 | [FB]4 A2- [EA]2 | [DG]2 [DF]2 [CF]2 [CE]2 | [CF]8 | [CA]4 [FB]2 [Ec]2 | %5
w: By~Genevan~Psaler,~1551 * *|||||
 [Dd]4 [Ec]4 | [FB]2 [FA]2 [DG]2 [DF]2 | [CE]8 | C4 [A,F]2 [=B,F]2 | [CE]4 F4 | %10
w: |||||
 [DG]2 [DB]2 [FA]2 [DG]2 | [EA]8 | [Fc]4 [Fc]2 [GB]2 | [FA]4 G2- [EG]2 | z2 c2 z4 | [Ec]8 | %16
w: ||||||
 A2- [EA]2 [DG]2 [DF]2 |[M:6/4] [CE]4 F2- F2 [DG]2 [GB]2 |[M:4/4] A4 z2 E2 | F8 |] %20
w: ||||
V:2
 x8 | z4 F2 z2 | x8 | x8 | x8 | x8 | x8 | x8 | x8 | x8 | x8 | x8 | x8 | z4 D2 z2 | %14
 A2 z E [Dc]2 [D=B]2 | x8 | F2 z2 z4 |[M:6/4] x12 |[M:4/4] z4 G4 | x8 |] %20
V:3
 x8 | x8 | x8 | x8 | x8 | x8 | x8 | x8 | x8 | x8 | x8 | x8 | x8 | x8 | F4 z4 | x8 | x8 | %17
[M:6/4] x12 |[M:4/4] F6 z2 | x8 |] %20
V:4
 A,4 C2 C2 | D4 C4 | .C4[K:bass] G,2 G,2 | A,8 | F,2 E,2 F,G, A,2 | B,4 G,2 A,2 | B,2 C2 .B,4 | %7
 G,8 | F,4 F,2 F,2 | G,2 C2 B,2 A,2 | G,2 G,2[K:treble] C2 D2 | D4 ^C4 | C4[K:bass] A,2 G,2 | %13
 C4 B,4 | C3 =B, A,2 G,2 | G,8 | F,4 .B,4 |[M:6/4] G,4[K:treble] C2- C2 D2 B,2 |[M:4/4] C2 D2 G,4 | %19
 A,8 |] %20
V:5
 F,4 E,2 F,2 | B,,2 D,2 F,4 | B,,2 z A, C,2 C,2 | F,8 | z4 D,2 C,2 | B,,4 C,4 | D,2 F,2 B,,2 z A, | %7
 C,8 | A,,4 D,2 D,2 | C,4 D,4 | B,,2 G,,2 A,,2 B,,2 | A,,8 | A,,4 D,2 E,2 | F,4 z4 | %14
 A,3 G, F,2 z2 | C,8 | F,,4 B,,2 z A, |[M:6/4] C,4 A,,2- A,,2 B,,2 A,,2 |[M:4/4] A,,2 B,,2 C,4 | %19
 F,,8 |] %20
V:6
 x8 | x8 | z2 G,,2 z4 | x8 | x8 | x8 | z4 z2 G,,2 | x8 | x8 | x8 | x8 | x8 | x8 | x8 | x8 | x8 | %16
 z4 z2 G,,2 |[M:6/4] x12 |[M:4/4] x8 | x8 |] %20
V:7
 x8 | x8 | x4[K:bass] x4 | z2 E,2 D,2 C,2 | x8 | x8 | x8 | z2 B,,2 A,,2 G,,2 | x8 | x8 | %10
 x4[K:treble] x4 | x8 | x4[K:bass] x4 | x8 | x8 | z2 B,,2 A,,2 G,,2 | x8 |[M:6/4] x4[K:treble] x8 | %18
[M:4/4] x8 | x8 |] %20

